X: 11256
T: Dusty Windowsills
R: jig
M: 6/8
K: Adorian
E|:A2B cBA|eAB cBA|GAG EGG|DGG EGG|
A2B cBA|e2d efg|age dBG|BAG A3:|
aba age|def gfg|gag gfe|dBA GFG|
EGG DGG|EGG ABc|Bed BAG|BAG A3:|
ABA gAf|ABA edB|GFG eGd|GFG edB|
ABA gAf|ABA efg|age dBG|BAG A3:|

